src/assets/images/svg/icons/folder.svg

<svg width="32" height="32" viewBox="0 0 32 32" fill="none" xmlns="http://www.w3.org/2000/svg">
<path d="M2 6.99947C2.04357 6.85148 2.08091 6.70348 2.1307 6.56165C2.45433 5.63669 3.28831 5.02004 4.32145 5.01387C6.55576 4.99538 8.79007 4.99538 11.0244 5.01387C11.9331 5.02004 12.6737 5.40853 13.2525 6.1115C13.5948 6.52465 13.9371 6.93164 14.2669 7.35712C14.5719 7.74561 14.9516 7.91827 15.4495 7.91827C18.3248 7.9121 21.1939 7.9121 24.0693 7.91827C25.2456 7.91827 26.148 8.55341 26.4219 9.60788C26.5214 9.98403 26.5152 10.3848 26.5588 10.8103C26.3907 10.8103 26.2849 10.8103 26.1729 10.8103C21.4055 10.8103 16.632 10.8103 11.8646 10.8103C9.93524 10.8103 8.5598 11.8401 8.01833 13.6839C6.9603 17.2851 5.89605 20.8863 4.83801 24.4875C4.59529 25.32 4.02271 25.8071 3.26341 25.838C2.7095 25.8626 2.29251 25.5975 2.08091 25.098C2.06224 25.0487 2.03112 25.0055 2.00622 24.9623C2 18.9685 2 12.9871 2 6.99947Z" fill="#19405C"/>
<path d="M3.65551 26.9664C3.76754 26.9356 3.87956 26.9048 3.99159 26.8678C4.99983 26.5409 5.63465 25.8626 5.92717 24.8637C6.60555 22.5574 7.28394 20.2573 7.96232 17.9511C8.36064 16.5883 8.75896 15.2317 9.1635 13.8751C9.51825 12.6788 10.4705 11.9511 11.7277 11.9511C17.2108 11.945 22.6876 11.945 28.1707 11.9511C29.4715 11.9511 30.2743 13.0179 29.9134 14.2512C28.874 17.8154 27.8284 21.3735 26.7766 24.9315C26.397 26.2141 25.314 26.9911 23.9262 26.9973C21.2997 27.0034 18.6733 26.9973 16.0469 26.9973C11.9144 26.9973 7.78183 26.9973 3.65551 26.9973C3.65551 26.9911 3.65551 26.9788 3.65551 26.9664Z" fill="#19405C"/>
</svg>

<svg xmlns="http://www.w3.org/2000/svg" viewBox="0 0 32 32"><defs><style>.cls-1{fill:#19405c;}.cls-2{opacity:0.25;}.cls-3,.cls-4,.cls-5,.cls-6,.cls-7{fill:none;stroke-miterlimit:10;stroke-width:0.1px;}.cls-3{stroke:#b400ff;}.cls-4{stroke:#0036f9;}.cls-5{stroke:#00ff7f;}.cls-6{stroke:#ff7900;}.cls-7{stroke:#00d5e5;}</style></defs><g id="Layer_2" data-name="Layer 2"><path class="cls-1" d="M2,7c0-.15.08-.3.13-.44A2.3,2.3,0,0,1,4.32,5H11a2.84,2.84,0,0,1,2.23,1.1c.34.41.69.82,1,1.25a1.38,1.38,0,0,0,1.18.56h8.62a2.27,2.27,0,0,1,2.35,1.69,7.32,7.32,0,0,1,.14,1.2H11.86A3.76,3.76,0,0,0,8,13.68L4.84,24.49a1.7,1.7,0,0,1-1.58,1.35,1.16,1.16,0,0,1-1.18-.74C2.06,25.05,2,25,2,25Q2,16,2,7Z"/><path class="cls-1" d="M3.66,27l.33-.1a2.85,2.85,0,0,0,1.94-2c.68-2.3,1.35-4.6,2-6.91l1.2-4.07A2.58,2.58,0,0,1,11.73,12H28.17a1.73,1.73,0,0,1,1.74,2.3c-1,3.57-2.08,7.12-3.13,10.68A2.86,2.86,0,0,1,23.93,27H3.66Z"/></g><g id="guides" class="cls-2"><rect id="_28_x_24" data-name="28 x 24" class="cls-3" x="2" y="4" width="28" height="24"/><rect id="_24_x_28" data-name="24 x 28" class="cls-4" x="4" y="2" width="24" height="28"/><rect id="_26_x_26" data-name="26 x 26" class="cls-5" x="3" y="3" width="26" height="26"/><circle class="cls-6" cx="16" cy="16" r="14"/><line class="cls-7" x1="0.01" y1="0.01" x2="32.01" y2="32.01"/><line class="cls-7" x1="32.01" y1="0.01" x2="0.01" y2="32.01"/></g></svg>
